X:5
T:The Roaring Barmaid
T:B part harmonies
R:jig
D:
Z:Translated to abc by Debbie Knight
L:1/8
M:6/8
K:G
P:1st Harmony
GGB d3|dcd GGB| d3 dcB|GGD GGB |d3 dcd|
cBB dBB| cBB GAB| GGB cAG:|"go out on"D6 |]
P:2nd Harmony
Bcd g3 |geg Bcd |g3 ged |cBG Bcd | g3 geg |
edd gdd |edd Bcd | Bcd gfd:|"go out on"B6 |]
%%text 01/25/06 

#include "LeftHeader.h"
% ---------- set 72 ----------
%%text Set 72 (old set 71)
%%vskip -1cm
%%scale .7
